X:95
%%etbk:tnset id:33,pos:2,rep:3x,ant:
%%etbk:wsite http://www.thesession.org/tunes/display/2289
%%etbk:pldat 2016-09-07T16:22,2016-07-05T17:30,2016-01-21T19:26,2016-01-03T13:33,2015-12-31T14:17,2015-12-29T16:07,2015-11-29T14:28,2015-11-25T17:14,2015-07-08T16:02,2015-02-06T18:14,2015-01-17T15:13,2014-12-13T16:09,2014-12-06T16:01,2014-12-02T17:26,2014-09-09T18:48,2014-05-21T19:13,2014-05-19T18:20,2014-05-17T20:34,2014-05-13T18:46,2014-05-02T17:12,2014-03-25T17:07,2014-02-09T11:37,2014-02-06T18:58,2013-11-17T16:16,2013-11-03T15:18,2013-08-27T18:51,2013-05-05T14:19,2013-04-30T17:41
T: Maghera Mountain
Z: Piano Box Version by Martin Fleischmann
H: Created 2013-02-19 /  Last Modified 2013-02-19
M: 4/4
L: 1/8
R: reel
K:Gdor
S:Martin Hayes
|:"gm"!5!d2 !4!c!2!A !3!BA!1!G!2!F | !1!D!3!GG!2!F !1!GABc | !5!dBcA !3!BAGB | "F"!2!A!1!F!2!FF !1!C!2!F!3!A!4!c |
"gm"!5!dBcA !3!BA!1!G!2!F | !1!D!3!GG!2!F !1!GBA!1!G | "dm"!1!F!1!G!2!A!3!c !5!f!4!d!3!c!2!A | !3!BBAB "gm"!1!G4:|
|: "F"!1!F2 !2!A!3!c !5!f2 !2!ef | !4!g2 ag !4!gf!1!d!3!f | "C"!2!e!1!c !3!(3c!2!c!1!c !5!a!1!c!5!gc | !2!ec!4!gc !5!ac!4!g!1!c |
"gm"!3!B!1!GG!2!F !1!G3 !3!B | "dm"!2!A!1!F !3!(3F!2!F!1!F !1!F3 !1!A | "gm"!2!B2 !5!g!4!e !5!f!3!d!2!c!1!A | "dm"!3!BBAB "gm"!1!G4:|


